svg/chat_plus_outline.svg

<svg xmlns="http://www.w3.org/2000/svg" viewBox="0 0 24 24"><path d="M12 3c5.5 0 10 3.58 10 8 0 .58-.08 1.14-.22 1.68-.59-.3-1.23-.52-1.9-.62.08-.34.12-.7.12-1.06 0-3.31-3.58-6-8-6s-8 2.69-8 6 3.58 6 8 6l1.09-.05L13 18l.08.95L12 19c-1.19 0-2.38-.17-3.53-.5C6.64 20 4.37 20.89 2 21c2.33-2.33 2.75-3.9 2.75-4.5A7.22 7.22 0 0 1 2 11c0-4.42 4.5-8 10-8m6 11h2v3h3v2h-3v3h-2v-3h-3v-2h3z"/></svg>

<?xml version="1.0" encoding="UTF-8"?><!DOCTYPE svg PUBLIC "-//W3C//DTD SVG 1.1//EN" "http://www.w3.org/Graphics/SVG/1.1/DTD/svg11.dtd"><svg xmlns="http://www.w3.org/2000/svg" xmlns:xlink="http://www.w3.org/1999/xlink" version="1.1" id="mdi-chat-plus-outline" width="24" height="24" viewBox="0 0 24 24"><path d="M12 3C17.5 3 22 6.58 22 11C22 11.58 21.92 12.14 21.78 12.68C21.19 12.38 20.55 12.16 19.88 12.06C19.96 11.72 20 11.36 20 11C20 7.69 16.42 5 12 5C7.58 5 4 7.69 4 11C4 14.31 7.58 17 12 17L13.09 16.95L13 18L13.08 18.95L12 19C10.81 19 9.62 18.83 8.47 18.5C6.64 20 4.37 20.89 2 21C4.33 18.67 4.75 17.1 4.75 16.5C3.06 15.17 2.05 13.15 2 11C2 6.58 6.5 3 12 3M18 14H20V17H23V19H20V22H18V19H15V17H18V14Z" /></svg>
